X:1
T:The "Unknown" -- Reel
R:reel
N:316
B:Ryan's Mammoth Collection
Z:Contributed by Ray Davies,  ray:davies99.freeserve.co.uk
M:C|
L:1/8
K:A
"_ff"uE2|\
vA2cA vBAGB | ABcd "4"e2 vc"0"e | dcBd cBAc | BdGB AGFE |
 A2cA vBAGB | ABcd "4"e2 vce | dcBd cBAc | BdGB A2 :|
|:"_p"u((3"4"e^de)|\
f=d ((3d"4"ed) Adfd | "0"ec((3cdc) vAc"4"ec | dB ((3BcB) GB"4"eG |\
"_ff"( A"1"^AB"1"^B ^cd^de) |
"_p"f=d ((3ded) Adfd | ec((3cdc) Acec | dB ((3BcB) GBed | cABG A2 :|
